src/images/icons/green_case.svg

<svg width="40" height="41" viewBox="0 0 40 41" fill="none" xmlns="http://www.w3.org/2000/svg">
<path d="M2.95318 34.4538V10.1885C2.95318 15.7667 2.95318 20.1308 2.95318 23.2809C2.95318 26.431 2.95318 28.7935 2.95318 30.3685C2.95318 31.9436 2.95318 32.9608 2.95318 33.4202C2.95318 33.8796 2.95318 34.2241 2.95318 34.4538ZM0 37.407V7.23529H12.3049V0H27.0708V7.23529H39.3757V21.6567C38.8836 21.6567 38.3914 21.6567 37.8992 21.6567C37.407 21.6567 37.407 21.6567 36.4226 21.6567V10.1885H2.95318V34.4538H20.6723C20.6723 34.946 20.6723 35.4382 20.6723 35.9304C20.6723 36.4226 20.6723 36.9148 20.6723 37.407H0ZM15.2581 7.23529H24.1176V2.95318H15.2581V7.23529Z" fill="#62CB7F"/>
<path d="M30.0597 36.2542L36.8833 29.4069L35.8681 28.3917L30.0597 34.2236L27.25 31.4139L26.2347 32.4292L30.0597 36.2542ZM23 41V24H40V41H23Z" fill="#62CB7F"/>
</svg>

<svg width="40" height="41" fill="none" xmlns="http://www.w3.org/2000/svg"><path d="M2.953 34.454V10.188v24.266ZM0 37.407V7.235h12.305V0H27.07v7.235h12.305v14.422H36.423V10.188H2.953v24.266h17.72V37.407H0ZM15.258 7.235h8.86V2.953h-8.86v4.282Z" fill="#62CB7F"/><path d="m30.06 36.254 6.823-6.847-1.015-1.015-5.808 5.832-2.81-2.81-1.015 1.015 3.825 3.825ZM23 41V24h17v17H23Z" fill="#62CB7F"/></svg>
